src/assets/edit.svg

<?xml version="1.0" encoding="UTF-8" standalone="no"?><!DOCTYPE svg PUBLIC "-//W3C//DTD SVG 1.1//EN" "http://www.w3.org/Graphics/SVG/1.1/DTD/svg11.dtd"><svg width="100%" height="100%" viewBox="0 0 1024 1024" version="1.1" xmlns="http://www.w3.org/2000/svg" xmlns:xlink="http://www.w3.org/1999/xlink" xml:space="preserve" xmlns:serif="http://www.serif.com/" style="fill-rule:evenodd;clip-rule:evenodd;stroke-linecap:round;stroke-linejoin:round;stroke-miterlimit:1.5;"><path d="M240.846,630.039l129.84,106.906l468.741,-569.3l-129.84,-106.906l-468.741,569.3Z" style="fill:#fff;stroke:#000;stroke-width:30px;"/><path d="M165.97,853.279l74.876,-223.24l129.84,106.906l-204.716,116.334Z" style="fill:#fff;stroke:#000;stroke-width:30px;"/><path d="M165.97,853.279l37.438,-111.62l64.92,53.453l-102.358,58.167Z"/><path d="M80.636,937.737l844.125,-0" style="fill:none;stroke:#000;stroke-width:100px;"/></svg>

<?xml version="1.0" encoding="UTF-8" standalone="no"?>
<!DOCTYPE svg PUBLIC "-//W3C//DTD SVG 1.1//EN" "http://www.w3.org/Graphics/SVG/1.1/DTD/svg11.dtd">
<svg width="100%" height="100%" viewBox="0 0 1024 1024" version="1.1" xmlns="http://www.w3.org/2000/svg" xmlns:xlink="http://www.w3.org/1999/xlink" xml:space="preserve" xmlns:serif="http://www.serif.com/" style="fill-rule:evenodd;clip-rule:evenodd;stroke-linecap:round;stroke-linejoin:round;stroke-miterlimit:1.5;">
    <path d="M240.846,630.039L370.686,736.945L839.427,167.645L709.587,60.739L240.846,630.039Z" style="fill:none;stroke:black;stroke-width:30px;"/>
    <path d="M165.97,853.279L240.846,630.039L370.686,736.945L165.97,853.279Z" style="fill:none;stroke:black;stroke-width:30px;"/>
    <path d="M165.97,853.279L203.408,741.659L268.328,795.112L165.97,853.279Z"/>
    <path d="M80.636,937.737L924.761,937.737" style="fill:none;stroke:black;stroke-width:100px;"/>
</svg>
